X: 1
T: Lord Galway's Lamentation
C: O'Carolan
R: lament, air
S: Fiddle Hell Online 2021-11-02 Abby Newton, O'Carolan class handout
Z: 2021 John Chambers <jc:trillian.mit.edu>
M: 3/4
L: 1/8
%Q: "Adagio"
K: Ddor clef=bass middle=D
Ac | "Dm"d2d2 "Am"cd/e/ | "Dm"d4 cd | "C"e2g2 e/f/e/d/ | "Am"Tc4 cB || "Dm"A2 d2 de | "T"Td4 cB |
"F"A2GE "Am"DC | "Dm"D4 :| EG | "Am"A>B AG EG | "Dm"A2 D2 EG | "Am"A>B AG EG | "Dm"TA2D2 GA || "C"c>d cA GA |
"Am"c2 E2 GA | "F"c>d cA "G"GA | "C"Tc4 Ac || "Dm"d2 d2 fe | "G"Td4 cA | "F"GA cA "Am"GE | "Dm"D4 z2 |]
